X: 4
M: C|
L: 1/8
K: A
V: 1
|:\
cecA dfdB | cecA BGFE |\
cdec fgab | geB^d e4 ::\
efec dBTB2 | dedB cAA2 |
V: 2 clef=bass middle=d
|:\
a4 d2z2 | a4 e2z2 | a4 f4 | b2B2 e4 :: a4 b4 | e4 a4 | A4 c2d2 |
e2e2 A4 :: A4 A2z2 | e2e2 A2z2 | a4 A4 | d2e2 A4 :|

